Sources/FrostedUI/Resources/Icons.xcassets/creditCardFilled12.imageset/credit-card-filled-12.svg

<svg width="12" height="12" viewBox="0 0 12 12" fill="none" xmlns="http://www.w3.org/2000/svg" data-fui-icon="true">
  <path d="M0 3.45C0 2.23497 0.984974 1.25 2.2 1.25H9.8C11.015 1.25 12 2.23497 12 3.45V4H0V3.45Z" fill="currentColor" />
  <path
    fill-rule="evenodd"
    clip-rule="evenodd"
    d="M0 5.5V8.55C0 9.76503 0.984973 10.75 2.2 10.75H9.8C11.015 10.75 12 9.76503 12 8.55V5.5H0ZM3 8.25C3 7.83579 3.33579 7.5 3.75 7.5H5.25C5.66421 7.5 6 7.83579 6 8.25C6 8.66421 5.66421 9 5.25 9H3.75C3.33579 9 3 8.66421 3 8.25Z"
    fill="currentColor"
  />
</svg>

<svg xmlns="http://www.w3.org/2000/svg" width="12" height="12" fill="none" data-fui-icon="true" viewBox="0 0 12 12"><path fill="currentColor" d="M0 3.45a2.2 2.2 0 0 1 2.2-2.2h7.6a2.2 2.2 0 0 1 2.2 2.2V4H0z"/><path fill="currentColor" fill-rule="evenodd" d="M0 5.5v3.05a2.2 2.2 0 0 0 2.2 2.2h7.6a2.2 2.2 0 0 0 2.2-2.2V5.5zm3 2.75a.75.75 0 0 1 .75-.75h1.5a.75.75 0 0 1 0 1.5h-1.5A.75.75 0 0 1 3 8.25" clip-rule="evenodd"/></svg>
